X:1
T:Captain Fleming Dix.48
T:Captain Fleming Dix.48
T:MS attributes Gow
C:MS attributes Gow
%%score 1 2
L:1/8
Q:1/4=120
M:2/4
K:C
V:1 treble 
V:2 treble 
V:1
|: G | ccce | ccce | dfBd | cccG | ccce | ccce | dfBd | c3 :: e | g>^fg>f | g2 ee | fddg | %13
 e"^b,b in ms" cce | g>^fg>f | g2 e>e | fddB | c3 :: e | dddg | eccg | a>ga>b | c'gec | dddg | %24
V:2
|: z | C,2 C2 | C,2 C2 | G,,2 G,2 | C,2 C2 | C,2 C2 | C,2 C2 | G,,2 G,2 | C,2"^cr in ms" C :: z | %10
 C,2 C2 | C,2 E,2 | G,2 G,,2 | C,2 C2 | E>DE>D | E2 C2 | B,2 G,2 | C2 C, :: z | B,2 G,2 | C2 C,2 | %21
 E,2 G,2 | CG,E,C, |"^Tune incomplete in MS" B,,2 G,,2 | %24

